X:1
T:Emmanuel - Soprano
T:Emmanuel - Soprano
L:1/8
Q:1/4=66
M:4/4
K:Bb
V:1 treble nm="Piano" snm="Pno."
V:1
"^\n" z4 z2 DE | FF/F/- FF F F2 E/F/ | ED DC/D/- D2 z (E/F/) | GG/G/- GG GG/G/- GB,/C/ | %4
w: When all|Is- ra- el _ was trou- bled and their|hearts were filled with fear _ God _|sent I- sa- * iah to the King _ to as-|
w: ||||
 DDDE C2 z (D/E/) | FF/F/- FF FF/F/- FE | ED DC/D/- D2 z (E/F/) | GG/G/- GG GG/G/- GB,/C/ | %8
w: sure them He was near and _|so they would * be- lieve his * words he|gave to them a * sign A *|vir- gin * will con- ceive a child * who will|
w: ||||
 DDDE C4- | C2 z2 D2 E2 |S F4- FB A>F | G4 z2 A>B | F4- FBAB | c6 D>E | F4 G2 (A>B) | B4 z BAG | %16
w: be of God's des- ign|* Call His|name * Em- man- u-|el God will|come * with us to|dwell Now we|know All is *|well for He will|
w: |||* * (has)||||* (for Je- sus|
 F4 z d c>B!dacoda! | B8 | z8 | z8 | z8 | z8 | z8 | z2 (ED F4 | _A4 G4) | z2 (G6 | %26
w: Come Em- man- u-|el||||||Ooo _ _|_ _|Ooo|
w: is) * * *||||||||||
 (G4 F)) z DE!D.S.! |O B4 z2 z G/A/ | BB/B/- BB B B2 B/B/ | AG/G/- GF G2 z E/F/ | %30
w: _ _ Call His|el. When you|feel that you're * for sa- ken and you|feel that you're * a- lone when you|
w: ||||
 GG GG/G/- GF EF/F/- | F4 z2 GA | BB/B/- BB B>B BB | AG/G/- GF/G/- G2 z G/G/ | %34
w: can- not find a friend _ to call your own|* just re-|mem- ber Je- * sus came to bring you|hope in your * des- pair * You can|
w: ||||
 GG/G/- GG GA/B/- Bc | c4 z c-cB | _d3 z B2 B2 ||[K:Db] A4 z d c>A | B4- B z c>d | A4- Adcd | %40
w: call His name _ and know that he * is|there He _ is|there Call His|name Em- man- u-|el * God has|come * for us to|
w: ||||||
 e4 z A F>G | A2- A2 B2 (c>d) | d4 z dcB | A6 A2 | B>B B2 z BBB | c4 z ABc | d8 | z2 d2 d2 d2 | %48
w: dwell for now we|know _ all is *|well For Je- sus|is Em-|man- u- el with us to|dwell now all is|well|Just call His|
w: ||||||||
 e8 | z dgf f4- | f8 | z8 |] %52
w: name|Em- man- u- el|||
w: ||||

